X:1
T:Title
%%score 1 { 2 | 3 }
L:1/8
Q:1/4=97
M:4/4
K:F
V:1 treble nm="Grand Piano, Soprano"
V:2 treble nm="Choir Pad, Bass"
V:3 bass 
V:1
 CF [FA]>[FA] [FA]>[FB] [FA]2 | [EG]2 F2 D2 C2 | FA [Fc]>[Fc] [Fc]>[Fc] [Fc]2 | [EB]2 [FA]6 | %4
w: By~H.~W.~Porter * * * * * *||||
 [Fc]2 [Fd]2- [Fd][Fd] [FB]2 | [Fd]2 [Fc]2 [Fc]2 [CA]2 | FG [FA]>[FA] [FA]>[FB] [EA]2 | [EG]2 F6 | %8
w: ||||
 [_EF]2 [DF]2- [DF][DB] [DB]2 | [^CF]2 [=CF]2- [CF][FA] [FA]2 | [FA]2 G2 [Gc]2 [Gc]2 | %11
w: |||
 [F=B]2 [Ec]6 | [Fc]2 [Fd]2- [Fd][Fd] [FB]2 | [Fd]2 [Fc]2 [Fc]2 [CA]2 | %14
w: |||
 FG [FA]>[FA] [FA]>[FB] [EA]2 | [EG]2 F6- | F2 z2 z4 |] %17
w: |||
V:2
 A,2 C>C C>D C2 | B,2 A,2 B,2 A,2 | A,2 A,>A, A,>B, A,2 | G,C C6 | A,2 B,2- B,B, B,2 | %5
 B,2 A,2 A,2 F,2 | A,B,[K:treble] C>C C>D C2 | B,2 A,6 | C2 B,2- B,B, B,2 | %9
 B,2 A,2- A,[K:treble]C C2 | C2 C2 C2 D2 | D2 C6 | A,2 B,2- B,B, B,2 | B,2 A,2 A,2 F,2 | %14
 A,B,[K:treble] C>C C>D C2 | B,2 A,6- | A,2 z2 z4 |] %17
V:3
 F,2 F,>F, F,>B,, C,2 | C,2 F,6 | F,2 F,>F, F,>B,, C,2 | C,2 F,2 E,2 D,2 | C,2 B,,2- B,,B,, D,2 | %5
 B,,2 F,2 F,2 z2 | D,2 C,>C, C,>C, C,2 | C,2 F,6 | A,,2 B,,2- B,,B,, B,,2 | B,,2 F,2- F,F, F,2 | %10
 F,2 E,2 E,2 D,2 | G,2 C,6 | F,2 B,,2- B,,B,, D,2 | B,,2 F,2 F,2 z2 | D,2 C,>C, C,>C, C,2 | %15
 C,2 [F,,F,]6- | [F,,F,]2 z2 z4 |] %17

